usr/share/icons/biglinux-icons-material/scalable/apps/preferences-devices-drive-optical-check.svg

<?xml version="1.0" encoding="UTF-8" standalone="no"?>
<svg
   width="24"
   height="24"
   version="1.1"
   id="svg15684"
   sodipodi:docname="preferences-devices-drive-optical-check.svg"
   inkscape:version="1.2.2 (b0a8486541, 2022-12-01)"
   xmlns:inkscape="http://www.inkscape.org/namespaces/inkscape"
   xmlns:sodipodi="http://sodipodi.sourceforge.net/DTD/sodipodi-0.dtd"
   xmlns="http://www.w3.org/2000/svg"
   xmlns:svg="http://www.w3.org/2000/svg">
  <defs
     id="defs15688">
    <radialGradient
       fx="0"
       fy="0"
       cx="0"
       cy="0"
       r="1"
       gradientUnits="userSpaceOnUse"
       gradientTransform="matrix(0,22.000002,-22.000002,0,11.999545,0.999926)"
       spreadMethod="pad"
       id="radialGradient12763-3">
      <stop
         style="stop-opacity:1;stop-color:#a4a4a4"
         offset="0"
         id="stop12759-6" />
      <stop
         style="stop-opacity:1;stop-color:#626262"
         offset="1"
         id="stop12761-7" />
    </radialGradient>
  </defs>
  <sodipodi:namedview
     id="namedview15686"
     pagecolor="#ffffff"
     bordercolor="#000000"
     borderopacity="0.25"
     inkscape:showpageshadow="2"
     inkscape:pageopacity="0.0"
     inkscape:pagecheckerboard="0"
     inkscape:deskcolor="#d1d1d1"
     showgrid="false"
     inkscape:zoom="9.3691649"
     inkscape:cx="6.510719"
     inkscape:cy="24.601979"
     inkscape:window-width="2560"
     inkscape:window-height="1000"
     inkscape:window-x="1680"
     inkscape:window-y="0"
     inkscape:window-maximized="1"
     inkscape:current-layer="svg15684" />
  <path
     d="m 9.592881,1.114594 c 0.119998,0 0.234668,-0.016 0.344,-0.04667 1.437333,-0.09467 2.874667,-0.08933 4.308,0.01067 1.301333,0.104 2.561333,0.385333 3.781333,0.848 2.025334,0.833333 3.410667,2.281333 4.161334,4.338666 0.421333,1.24 0.676,2.516 0.754666,3.822667 0.104,1.646666 0.068,3.286666 -0.114666,4.928 -0.140001,1.150667 -0.437334,2.254667 -0.896001,3.317334 -0.849333,1.844 -2.229333,3.114666 -4.134667,3.812 -1.542666,0.521333 -3.130666,0.797333 -4.766666,0.823999 -1.833333,0.09867 -3.650666,-0.04267 -5.452,-0.411999 -3.308,-0.734667 -5.354666,-2.754667 -6.125333,-6.057334 -0.328,-1.483999 -0.48,-2.989333 -0.448,-4.510666 -0.036,-1.62 0.134667,-3.213333 0.516,-4.786667 C 2.332881,4.119928 4.291548,2.207928 7.395548,1.469261 8.119547,1.291928 8.854214,1.171928 9.592881,1.114594 Z"
     style="fill:url(#radialGradient12763-3);fill-rule:evenodd;stroke:none;stroke-width:1.33333"
     id="path12765-6" />
  <g
     id="g16145"
     transform="matrix(3.779602,0,0,3.779602,0.644634,-3.8e-5)">
    <g
       id="g10410"
       transform="matrix(0.24325822,0,0,0.24325822,10.278374,1.5123062)"
       style="fill:none">
      <path
         opacity="0.75"
         d="m -21.902365,6.8348262 c 0.0027,-1.0513 -0.2024,-2.09284 -0.6035,-3.06467 -0.401,-0.97183 -0.9902,-1.85482 -1.7336,-2.59823 -0.7434,-0.7434 -1.6264,-1.33257 -2.5982,-1.73365 -0.9719,-0.40107 -2.0134,-0.60614 -3.0647,-0.60342 -1.0513,-0.00272 -2.09284,0.20235 -3.06467,0.60342 -0.97183,0.40108 -1.85482,0.99025 -2.59823,1.73365 -0.7434,0.74341 -1.33257,1.6264 -1.73365,2.59823 -0.40107,0.97183 -0.60614,2.01337 -0.60342,3.06467 -0.0027,1.0513 0.20235,2.0928 0.60342,3.0647 0.40108,0.9717998 0.99025,1.8547998 1.73365,2.5981998 0.74341,0.7434 1.6264,1.3326 2.59823,1.7336 0.97183,0.4011 2.01337,0.6062 3.06467,0.6035 1.0513,0.0027 2.0928,-0.2024 3.0647,-0.6035 0.9718,-0.401 1.8548,-0.9902 2.5982,-1.7336 0.7434,-0.7434 1.3326,-1.6264 1.7336,-2.5981998 0.4011,-0.9719 0.6062,-2.0134 0.6035,-3.0647 z m -5.0738,0 c 0,1.6121 -1.2832,2.9277 -2.9262,2.9277 -0.3851,0.0022 -0.7669,-0.0721 -1.1232,-0.2184 -0.3562,-0.1464 -0.6799,-0.3619 -0.95234,-0.6342 -0.27241,-0.2723 -0.48812,-0.5959 -0.63466,-0.9521 -0.14653,-0.3561 -0.22097,-0.7379 -0.21902,-1.123 0,-1.6106 1.18732,-2.92619 2.92772,-2.92619 1.7404,0 2.9277,1.34809 2.9277,2.92619 z"
         fill="#ffffff"
         id="path8363" />
      <path
         opacity="0.35"
         d="m -29.903165,2.8331362 c -0.5255,1.3e-4 -1.0458,0.10376 -1.5313,0.30497 -0.48542,0.20122 -0.92649,0.49609 -1.298,0.86777 -0.3715,0.37168 -0.66616,0.81289 -0.86715,1.29845 -0.20099,0.4855 -0.30437,1.0059 -0.30425,1.5314 1.3e-4,0.5256 0.10376,1.0459 0.30498,1.5314 0.20122,0.4854 0.49608,0.9265 0.86776,1.298 0.37168,0.3714998 0.81289,0.6660998 1.29846,0.8670998 0.4855,0.201 1.0059,0.3044 1.5314,0.3043 1.0614,-3e-4 2.0791,-0.4221 2.8294,-1.1726998 0.7503,-0.7507 1.1716,-1.7686 1.1714,-2.8299 -3e-4,-1.0614 -0.4221,-2.0791 -1.1728,-2.82939 -0.7506,-0.75028 -1.7685,-1.17165 -2.8299,-1.1714 z m 0,1.99943 c 0.2629,1.2e-4 0.5231,0.05206 0.7658,0.15266 0.2428,0.1007 0.4634,0.2483 0.6491,0.4342 0.1858,0.1859 0.3331,0.4066 0.4335,0.6495 0.1005,0.2428 0.1521,0.5031 0.152,0.7659 -10e-5,0.2628 -0.052,0.523 -0.1527,0.7658 -0.1007,0.2428 -0.2482,0.4633 -0.4341,0.6491 -0.1859,0.1857 -0.4066,0.333 -0.6495,0.4335 -0.2429,0.1005 -0.5031,0.1521 -0.7659,0.152 -0.5308,0 -1.0399,-0.2109 -1.4152,-0.5862 -0.3753,-0.3753 -0.58616,-0.8844 -0.58616,-1.4151 0,-0.5308 0.21086,-1.0399 0.58616,-1.4152 0.3753,-0.3753 0.8844,-0.58616 1.4152,-0.58616 z"
         fill="#ffffff"
         id="path8365" />
    </g>
  </g>
  <path
     id="circle16147"
     style="fill:#2cc36c;fill-opacity:1;stroke-width:2.66697"
     d="m 18.417969,11.3984 a 8.4647577,8.4647577 0 0 0 -8.464844,8.464843 8.4647577,8.4647577 0 0 0 0.585938,3.093751 c 0.82706,0.05326 1.656556,0.05658 2.490234,0.01172 1.635998,-0.02666 3.224913,-0.302884 4.767578,-0.824216 1.905332,-0.697334 3.285433,-1.96655 4.134766,-3.810547 0.458666,-1.062666 0.756483,-2.167694 0.896484,-3.31836 0.08459,-0.760098 0.135857,-1.518976 0.158203,-2.279297 a 8.4647577,8.4647577 0 0 0 -4.568359,-1.33789 z" />
  <path
     id="path18243"
     style="fill:#fcfcfc;fill-rule:evenodd;stroke:none;stroke-width:1.33333;fill-opacity:1"
     d="M 21.558594 16.044922 L 16.738281 20.865234 L 14.671875 18.798828 L 13.292969 20.177734 L 15.792969 22.675781 C 16.469398 22.542886 17.137232 22.367453 17.796875 22.144531 C 18.046437 22.053194 18.286053 21.952806 18.517578 21.841797 L 21.841797 18.515625 C 21.871571 18.454887 21.903067 18.39602 21.931641 18.333984 C 22.13126 17.871495 22.294762 17.398509 22.433594 16.919922 L 21.558594 16.044922 z " />
</svg>

<svg xmlns="http://www.w3.org/2000/svg" width="24" height="24"><defs><radialGradient id="a" cx="0" cy="0" r="1" fx="0" fy="0" gradientTransform="matrix(0 22 -22 0 12 1)" gradientUnits="userSpaceOnUse" spreadMethod="pad"><stop offset="0" style="stop-opacity:1;stop-color:#a4a4a4"/><stop offset="1" style="stop-opacity:1;stop-color:#626262"/></radialGradient></defs><path d="M9.593 1.115c.12 0 .235-.016.344-.047a31.813 31.813 0 0 1 4.308.01 13.68 13.68 0 0 1 3.781.849c2.026.833 3.41 2.28 4.162 4.338.42 1.24.676 2.516.754 3.823a28.303 28.303 0 0 1-.114 4.928 11.968 11.968 0 0 1-.896 3.317c-.85 1.844-2.23 3.115-4.135 3.812-1.543.522-3.13.798-4.767.824a21.331 21.331 0 0 1-5.452-.412c-3.308-.734-5.354-2.754-6.125-6.057a18.991 18.991 0 0 1-.448-4.51c-.036-1.62.135-3.214.516-4.787.812-3.083 2.77-4.995 5.875-5.734a13.692 13.692 0 0 1 2.197-.354Z" style="fill:url(#a);fill-rule:evenodd;stroke:none;stroke-width:1.33333"/><g fill="#fff" style="fill:none"><path d="M19.355 12A7.336 7.336 0 0 0 12 4.645 7.337 7.337 0 0 0 4.645 12 7.337 7.337 0 0 0 12 19.355 7.337 7.337 0 0 0 19.355 12zm-4.665 0A2.678 2.678 0 0 1 12 14.692 2.679 2.679 0 0 1 9.307 12c0-1.48 1.091-2.69 2.692-2.69 1.6 0 2.691 1.239 2.691 2.69z" opacity=".75"/><path d="M12 8.32A3.68 3.68 0 1 0 12 15.68 3.68 3.68 0 0 0 12 8.32zm0 1.839a1.841 1.841 0 1 1 0 3.682 1.841 1.841 0 0 1-.002-3.682z" opacity=".35"/></g><path d="M18.418 11.398a8.465 8.465 0 0 0-8.465 8.465 8.465 8.465 0 0 0 .586 3.094 21.08 21.08 0 0 0 2.49.012 15.597 15.597 0 0 0 4.768-.825c1.905-.697 3.285-1.966 4.135-3.81.458-1.063.756-2.168.896-3.318.085-.76.136-1.52.158-2.28a8.465 8.465 0 0 0-4.568-1.338z" style="fill:#2cc36c;fill-opacity:1;stroke-width:2.66697"/><path d="m21.559 16.045-4.82 4.82-2.067-2.066-1.379 1.379 2.5 2.498a15.705 15.705 0 0 0 2.004-.531c.25-.092.49-.192.72-.303l3.325-3.326c.03-.061.061-.12.09-.182.2-.463.363-.935.502-1.414l-.875-.875z" style="fill:#fcfcfc;fill-rule:evenodd;stroke:none;stroke-width:1.33333;fill-opacity:1"/></svg>
